assets/mouse-pointer.svg

<svg xmlns="http://www.w3.org/2000/svg"  viewBox="0 0 50 50" width="100px" height="100px"><path d="M 14.78125 5 C 14.75 5.007813 14.71875 5.019531 14.6875 5.03125 C 14.644531 5.050781 14.601563 5.070313 14.5625 5.09375 C 14.550781 5.09375 14.542969 5.09375 14.53125 5.09375 C 14.511719 5.101563 14.488281 5.113281 14.46875 5.125 C 14.457031 5.136719 14.449219 5.144531 14.4375 5.15625 C 14.425781 5.167969 14.417969 5.175781 14.40625 5.1875 C 14.375 5.207031 14.34375 5.226563 14.3125 5.25 C 14.289063 5.269531 14.269531 5.289063 14.25 5.3125 C 14.238281 5.332031 14.226563 5.355469 14.21875 5.375 C 14.183594 5.414063 14.152344 5.457031 14.125 5.5 C 14.113281 5.511719 14.105469 5.519531 14.09375 5.53125 C 14.09375 5.542969 14.09375 5.550781 14.09375 5.5625 C 14.082031 5.582031 14.070313 5.605469 14.0625 5.625 C 14.050781 5.636719 14.042969 5.644531 14.03125 5.65625 C 14.03125 5.675781 14.03125 5.699219 14.03125 5.71875 C 14.019531 5.757813 14.007813 5.800781 14 5.84375 C 14 5.875 14 5.90625 14 5.9375 C 14 5.949219 14 5.957031 14 5.96875 C 14 5.980469 14 5.988281 14 6 C 13.996094 6.050781 13.996094 6.105469 14 6.15625 L 14 39 C 14.003906 39.398438 14.242188 39.757813 14.609375 39.914063 C 14.972656 40.070313 15.398438 39.992188 15.6875 39.71875 L 22.9375 32.90625 L 28.78125 46.40625 C 28.890625 46.652344 29.09375 46.847656 29.347656 46.941406 C 29.601563 47.035156 29.882813 47.023438 30.125 46.90625 L 34.5 44.90625 C 34.996094 44.679688 35.21875 44.09375 35 43.59375 L 28.90625 30.28125 L 39.09375 29.40625 C 39.496094 29.378906 39.84375 29.113281 39.976563 28.730469 C 40.105469 28.347656 39.992188 27.921875 39.6875 27.65625 L 15.84375 5.4375 C 15.796875 5.378906 15.746094 5.328125 15.6875 5.28125 C 15.648438 5.234375 15.609375 5.195313 15.5625 5.15625 C 15.550781 5.15625 15.542969 5.15625 15.53125 5.15625 C 15.511719 5.132813 15.492188 5.113281 15.46875 5.09375 C 15.457031 5.09375 15.449219 5.09375 15.4375 5.09375 C 15.386719 5.070313 15.335938 5.046875 15.28125 5.03125 C 15.269531 5.03125 15.261719 5.03125 15.25 5.03125 C 15.230469 5.019531 15.207031 5.007813 15.1875 5 C 15.175781 5 15.167969 5 15.15625 5 C 15.136719 5 15.113281 5 15.09375 5 C 15.082031 5 15.074219 5 15.0625 5 C 15.042969 5 15.019531 5 15 5 C 14.988281 5 14.980469 5 14.96875 5 C 14.9375 5 14.90625 5 14.875 5 C 14.84375 5 14.8125 5 14.78125 5 Z M 16 8.28125 L 36.6875 27.59375 L 27.3125 28.40625 C 26.992188 28.4375 26.707031 28.621094 26.546875 28.902344 C 26.382813 29.179688 26.367188 29.519531 26.5 29.8125 L 32.78125 43.5 L 30.21875 44.65625 L 24.21875 30.8125 C 24.089844 30.515625 23.828125 30.296875 23.511719 30.230469 C 23.195313 30.160156 22.863281 30.25 22.625 30.46875 L 16 36.6875 Z"/></svg>

<svg xmlns="http://www.w3.org/2000/svg" xmlns:xlink="http://www.w3.org/1999/xlink" viewBox="0,0,256,256" width="100px" height="100px"><g fill="#144072" fill-rule="nonzero" stroke="none" stroke-width="1" stroke-linecap="butt" stroke-linejoin="miter" stroke-miterlimit="10" stroke-dasharray="" stroke-dashoffset="0" font-family="none" font-weight="none" font-size="none" text-anchor="none" style="mix-blend-mode: normal"><g transform="scale(5.12,5.12)"><path d="M14.78125,5c-0.03125,0.00781 -0.0625,0.01953 -0.09375,0.03125c-0.04297,0.01953 -0.08594,0.03906 -0.125,0.0625c-0.01172,0 -0.01953,0 -0.03125,0c-0.01953,0.00781 -0.04297,0.01953 -0.0625,0.03125c-0.01172,0.01172 -0.01953,0.01953 -0.03125,0.03125c-0.01172,0.01172 -0.01953,0.01953 -0.03125,0.03125c-0.03125,0.01953 -0.0625,0.03906 -0.09375,0.0625c-0.02344,0.01953 -0.04297,0.03906 -0.0625,0.0625c-0.01172,0.01953 -0.02344,0.04297 -0.03125,0.0625c-0.03516,0.03906 -0.06641,0.08203 -0.09375,0.125c-0.01172,0.01172 -0.01953,0.01953 -0.03125,0.03125c0,0.01172 0,0.01953 0,0.03125c-0.01172,0.01953 -0.02344,0.04297 -0.03125,0.0625c-0.01172,0.01172 -0.01953,0.01953 -0.03125,0.03125c0,0.01953 0,0.04297 0,0.0625c-0.01172,0.03906 -0.02344,0.08203 -0.03125,0.125c0,0.03125 0,0.0625 0,0.09375c0,0.01172 0,0.01953 0,0.03125c0,0.01172 0,0.01953 0,0.03125c-0.00391,0.05078 -0.00391,0.10547 0,0.15625v32.84375c0.00391,0.39844 0.24219,0.75781 0.60938,0.91406c0.36328,0.15625 0.78906,0.07813 1.07813,-0.19531l7.25,-6.8125l5.84375,13.5c0.10938,0.24609 0.3125,0.44141 0.56641,0.53516c0.25391,0.09375 0.53516,0.08203 0.77734,-0.03516l4.375,-2c0.49609,-0.22656 0.71875,-0.8125 0.5,-1.3125l-6.09375,-13.3125l10.1875,-0.875c0.40234,-0.02734 0.75,-0.29297 0.88281,-0.67578c0.12891,-0.38281 0.01563,-0.80859 -0.28906,-1.07422l-23.84375,-22.21875c-0.04687,-0.05859 -0.09766,-0.10937 -0.15625,-0.15625c-0.03906,-0.04687 -0.07812,-0.08594 -0.125,-0.125c-0.01172,0 -0.01953,0 -0.03125,0c-0.01953,-0.02344 -0.03906,-0.04297 -0.0625,-0.0625c-0.01172,0 -0.01953,0 -0.03125,0c-0.05078,-0.02344 -0.10156,-0.04687 -0.15625,-0.0625c-0.01172,0 -0.01953,0 -0.03125,0c-0.01953,-0.01172 -0.04297,-0.02344 -0.0625,-0.03125c-0.01172,0 -0.01953,0 -0.03125,0c-0.01953,0 -0.04297,0 -0.0625,0c-0.01172,0 -0.01953,0 -0.03125,0c-0.01953,0 -0.04297,0 -0.0625,0c-0.01172,0 -0.01953,0 -0.03125,0c-0.03125,0 -0.0625,0 -0.09375,0c-0.03125,0 -0.0625,0 -0.09375,0zM16,8.28125l20.6875,19.3125l-9.375,0.8125c-0.32031,0.03125 -0.60547,0.21484 -0.76562,0.49609c-0.16406,0.27734 -0.17969,0.61719 -0.04687,0.91016l6.28125,13.6875l-2.5625,1.15625l-6,-13.84375c-0.12891,-0.29687 -0.39062,-0.51562 -0.70703,-0.58203c-0.31641,-0.07031 -0.64844,0.01953 -0.88672,0.23828l-6.625,6.21875z"></path></g></g></svg>
